!!!COM: Scarlatti, Domenico 
!!!CDT: 1685///-1757///
!!!OTL: Sonata in D Major, K.345, L.306
!!!SCT: K. 345
!!!SCT: L. 306
**kern	**kern	**dynam
*staff2	*staff1	*staff1/2
*Icemba	*Icemba	*Icemba
*>[A,A1,A,A2,B,B]	*>[A,A1,A,A2,B,B]	*>[A,A1,A,A2,B,B]
*>norep[A,A2,B]	*>norep[A,A2,B]	*>norep[A,A2,B]
*>A	*>A	*>A
*clefF4	*clefG2	*clefG2
*k[f#c#]	*k[f#c#]	*k[f#c#]
*D:	*D:	*D:
*met(C)	*met(C)	*met(C)
*M4/4	*M4/4	*M4/4
*MM232	*MM232	*MM232
=1-	=1-	=1-
1r	(2dd\	f
.	2a/	.
=2	=2	=2
1r	4dd\)	.
.	(8ff#\L	.
.	8gg\J)	.
.	4aa'\	.
.	4gg'\	.
=3	=3	=3
1r	4ff#'\	.
.	4ee'\	.
.	4dd'\	.
.	4ee'\	.
=4	=4	=4
1r	4a'\	.
.	(8ff#\L	p
.	8gg\J)	.
.	4aa'\	.
.	4gg'\	.
=5	=5	=5
1r	4ff#'\	.
.	4ee'\	.
.	4dd'\	.
.	4ee'\	.
=6	=6	=6
2r	2a/	.
(8AA/L	2a\ 2aa\	<
8C#/	.	.
8BB/	.	.
8D/J	.	.
=7	=7	=7
8C#\L	2a\ 2aa\	.
8E\	.	.
8D\	.	.
8F#\J	.	.
8E\L	2a\ 2aa\	.
8G\	.	.
8F#\	.	.
8A\J	.	.
=8	=8	=8
8G\L	2a\ 2aa\	.
8B\	.	.
8A\	.	.
8c#\J	.	.
8B\L	2a\ 2aa\	.
8d\	.	.
8c#\	.	.
8e\J	.	.
=9	=9	=9
*	*^	*
2d\)	4aa/	2a\	f
.	4ff#/	.	.
(4f#\	2r	4aa\	.
4d\	.	8gg\L	.
.	.	8ff#\J	.
*	*v	*v	*
=10	=10	=10
2A\)	2ee\	.
(8AA/L	2a\ 2aa\	p
8C#/	.	.
8BB/	.	.
8D/J	.	.
=11	=11	=11
8C#\L	2a\ 2aa\	.
8E\	.	.
8D\	.	.
8F#\J	.	.
8E\L	2a\ 2aa\	.
8G\	.	.
8F#\	.	.
8A\J	.	.
=12	=12	=12
8G\L	2a\ 2aa\	.
8B\	.	.
8A\	.	.
8c#\J	.	.
8B\L	2a\ 2aa\	.
8d\	.	.
8c#\	.	.
8e\J	.	.
=13	=13	=13
*	*^	*
2d\)	4aa/	2a\	f
.	4ff#/	.	.
(4f#\	2r	4aa\	.
8e\L	.	8gg\L	.
8d\J	.	8ff#\J	.
*	*v	*v	*
=14	=14	=14
2A\)	2ee\	.
2A\	8a\L	<
.	8cc#\	.
.	8b\	.
.	8dd\J	.
=15	=15	=15
2A\	8cc#\L	.
.	8ee\	.
.	8dd\	.
.	8ff#\J	.
2A\	8ee\L	.
.	8gg\	.
.	8ff#\	.
.	8aa\J	.
=16	=16	=16
2A\ 2B\	2b\	p
2G\ 2B\	(8b\L	<
.	8dd\	.
.	8cc#\	.
.	8ee\J	.
=17	=17	=17
2G\ 2B\	8dd\L	.
.	8ff#\	.
.	8ee\	.
.	8gg\J	.
2G\ 2B\	8ff#\L	.
.	8aa\	.
.	8gg\	.
.	8bb\J	.
=18	=18	=18
2G\ 2A\	2a/)	p
2F#\ 2A\	(8aa\L	<
.	8ff#\	.
.	8gg\	.
.	8ee\J	.
=19	=19	=19
2F#\ 2A\	8ff#\L	.
.	8dd\	.
.	8ee\	.
.	8cc#\J	.
2F#\ 2A\	8dd\L	.
.	8b\	.
.	8cc#\	.
.	8a\J	.
=20	=20	=20
2G\ 2B\	8b/L	.
.	8g/	.
.	8a/	.
.	8f#/J	.
2G\ 2B\	8g/L	.
.	8e/	.
.	8dd/	.
.	8d/J)	.
=21	=21	=21
2A\	2d/ 2f#/	f
.	(eq/	.
2AA/	(2c#/ 2e/)	.
=22	=22	=22
2D\	2d/)	.
(2d\	(8a/L	p
.	8f#/	.
.	8b/	.
.	8a/J)	.
=23	=23	=23
2d\ 2e\)	4a/	.
.	4g/	.
(2c#\ 2e\	8ee/L	f
.	8g/	.
.	8a/	.
.	8e/J	.
=24	=24	=24
2d\)	4e/	>
.	4f#/	.
(2d\	8a/L	p
.	8f#/	.
.	8b/	.
.	8a/J	.
=25	=25	=25
2d\ 2e\)	4a/	.
.	4g/	.
(2c#\ 2e\	8ee/L	f
.	8g/	.
.	8a/	.
.	8e/J	.
=26	=26	=26
2d\)	4e/	>
.	4f#/	.
*clefG2	*	*
(2e/	8b/L	p
.	8g/	.
.	8ccn/	.
.	8b/J	.
=27	=27	=27
2e/ 2f#/)	4b/	>
.	4a/	.
(2d#/ 2f#/	8ff#/L	f
.	8a/	.
.	8b/	.
.	8f#/J	.
=28	=28	=28
2e/)	4f#/	>
.	4g/	.
2e/	8b/L	p
.	8g/	.
.	8ccn/	.
.	8b/J	.
=29	=29	=29
2e/ 2f#/	(4b/	>
.	4a/)	.
(2d#/ 2f#/	(8ff#\L	f
.	8a\	.
.	8b\	.
.	8f#\J)	.
=30	=30	=30
2e/)	4f#/	>
.	4g/	.
(2e/	8gg\L	p
.	8ff#\	<
.	8gg\	.
.	8ee\J	.
=31	=31	=31
2cn/)	4ff#\	.
.	4gg\	.
(2c/	8gg\L	.
.	8ff#\	.
.	8gg\	.
.	8ee\J	.
=32	=32	=32
2B/)	4ff#\	.
.	4gg\	.
2B/	4bb\	mf
.	4gg\	.
=33	=33	=33
2c#/	4ee\	.
.	4cc#\	.
.	(gq/	.
2c#/	2g/	.
=34	=34	=34
2d/	2f#/)	.
2f#/	(8aa\L	p
.	8gg#\	.
.	8aa\	.
.	8ff#\J	.
=35	=35	=35
2d/	4gg#\	.
.	4aa\)	.
2d/	(8aa\L	.
.	8gg#\	.
.	8aa\	.
.	8ff#\J	.
=36	=36	=36
2c#/	4gg#\	.
.	4aa\)	.
2c#/	(4ccc#\	f
.	4aa\	.
=37	=37	=37
2d#/	4ff#\	.
.	4dd#\)	.
.	aq/	.
2d#/	(2a/	.
=38	=38	=38
2e/	2g#/)	.
*clefF4	*	*
8EE/L	2e/ 2ee/	p
8GG#/	.	.
8FF#/	.	.
8AA/J	.	.
=39	=39	=39
8GG#/L	2e/ 2ee/	.
8BB/	.	.
8AA/	.	.
8C#/J	.	.
8BB/L	2e/ 2ee/	.
8D/	.	.
8C#/	.	.
8E/J	.	.
=40	=40	=40
8D\L	2e/ 2ee/	.
8F#\	.	.
8E\	.	.
8G#\J	.	.
8F#\L	2e/ 2ee/	.
8A\	.	.
8G#\	.	.
8B\J	.	.
=41	=41	=41
*	*^	*
2A\	(4ee/	2e\	f
.	4cc#/)	.	.
4c#\	2r	(4ee\	.
8B\L	.	8dd\L	.
8A\J	.	8cc#\J	.
*	*v	*v	*
=42	=42	=42
2E\	2b\)	.
8EE/L	2e/ 2ee/	p
8GG#/	.	.
8FF#/	.	.
8AA/J	.	.
=43	=43	=43
8GG#/L	2e/ 2ee/	.
8BB/	.	.
8AA/	.	.
8C#/J	.	.
8BB/L	2e/ 2ee/	.
8D/	.	.
8C#/	.	.
8E/J	.	.
=44	=44	=44
8D\L	2e/ 2ee/	.
8F#\	.	.
8E\	.	.
8G#\J	.	.
8F#\L	2e/ 2ee/	.
8A\	.	.
8G#\	.	.
8B\J	.	.
=45	=45	=45
*	*^	*
2A\	(4ee/	2e\	f
.	4cc#/)	.	.
4c#\	2r	(4ee\	.
8B\L	.	8dd\L	.
8A\J	.	8cc#\J	.
*	*v	*v	*
=46	=46	=46
2E\	2b\)	.
2e\	(8g#\L	p
.	8b\	.
.	8a\	.
.	8cc#\J	.
=47	=47	=47
2e\	4b'\)	.
.	(2gg#\	f
2d\	.	.
.	8aa\L	.
.	8bb\J	.
=48	=48	=48
2c#\	4aa'\)	.
.	4a'/	.
2e\	(8g#\L	p
.	8b\	.
.	8a\	.
.	8cc#\J	.
=49	=49	=49
2e\	4b'\)	.
.	(2gg#\	f
2d\	.	.
.	8aa\L	.
.	8bb\J	.
=50	=50	=50
2c#\	4aa'\)	.
.	(8ccc#\L	.
.	8bb\J	.
2C#/	8aa\L	.
.	8gg#\	.
.	8ff#\	.
.	8ee\J	.
=51	=51	=51
2D\	8dd\L	.
.	8cc#\	.
.	8b\	.
.	8a\J	.
2E\	8g#/L	.
.	8f#/	.
.	8e/	.
.	8d/J	.
=52	=52	=52
2A\	2c#/)	.
2F#\	(8cc#\L	p
.	8dd\	.
.	8ee\	.
.	8a\J)	.
=53	=53	=53
2D\	(4a\	.
.	4b\)	.
2BB/	(8b\L	.
.	8cc#\	.
.	8dd\	.
.	8g#\J)	.
=54	=54	=54
2C#/	(4g#/	.
.	4a/)	.
2C#/	(8cc#\L	<
.	8dd\	.
.	8ee\	.
.	8a\J	.
=55	=55	=55
2D/	8ff#\L	.
.	8gg#\	.
.	8aa\	.
.	8a\J	.
2BB/	8gg#\L	.
.	8aa\	.
.	8bb\	.
.	8gg#\J)	.
=56	=56	=56
2AA/	(4gg#\	f
.	4aa\)	.
2F#\	(8cc#\L	p
.	8dd\	.
.	8ee\	.
.	8a\J)	.
=57	=57	=57
2D\	(4a\	.
.	4b\)	.
2BB/	(8b\L	.
.	8cc#\	.
.	8dd\	.
.	8g#\J)	.
=58	=58	=58
2C#/	(4g#/	.
.	4a/)	.
2C#/	(8cc#\L	<
.	8dd\	.
.	8ee\	.
.	8a\J	.
=59	=59	=59
2D\	8ff#\L	.
.	8gg#\	.
.	8aa\	.
.	8a\J	.
2BB/	8gg#\L	.
.	8aa\	.
.	8bb\	.
.	8gg#\J	.
=60	=60	=60
2C#/	8aa\L	f
.	8gg#\	.
.	8aa\	.
.	8ee\J)	.
2C#/	(8aa\L	.
.	8gg#\	.
.	8ff#\	.
.	8ee\J	.
=61	=61	=61
2D\	8ee\L	.
.	8dd\	.
.	8ee\	.
.	8ff#\J	.
2E\	8ee\L	.
.	8dd\	.
.	8cc#\	.
.	8b\J	.
=62	=62	=62
2A\	4b\	.
.	4cc#\)	.
2C#/	(8aa\L	p
.	8gg#\	.
.	8ff#\	.
.	8ee\J	.
=63	=63	=63
2D\	8ee\L	.
.	8dd\	.
.	8ee\	.
.	8ff#\J	.
2E\	8ee\L	.
.	8dd\	.
.	8cc#\	.
.	8b\J	.
=64	=64	=64
2A\	8cc#\L)	.
.	8a\	.
.	8cc#\	.
.	8ee\J	.
(2C#/	8aa\L	.
.	8gg#\	.
.	8ff#\	.
.	8ee\J	.
=65	=65	=65
(2D\)	8ff#\L	.
.	8gg#\	.
.	8aa\	.
.	8dd\J	.
2E\	8cc#\L	.
.	8aa\	.
.	8b\	.
.	8gg#\J	.
=66	=66	=66
*>A1	*>A1	*>A1
1AA)	1aa	f
=67:|!	=67:|!	=67:|!
*>A2	*>A2	*>A2
2AA/	2aa\	f
=!|:	=!|:	=!|:
*>B	*>B	*>B
*clefG2	*	*
2a/	(8aa\L	p
.	8ee\	.
.	8ff#\	.
.	8cc#\J)	.
=68	=68	=68
2a/ 2b/	(4cc#\	.
.	4dd\)	.
(2g#/	(8bb\L	mf
.	8dd\	.
.	8ee\	.
.	8b\J)	.
=69	=69	=69
2a/)	4b\	>
.	4cc#\	.
(2a/	8aa\L	p
.	8ee\	.
.	8ff#\	.
.	8cc#\J	.
=70	=70	=70
2a/ 2b/)	4cc#\	.
.	4dd\	.
2gn/	8bb\L	mf
.	8dd\	.
.	8ee\	.
.	8b\J	.
=71	=71	=71
2g/ 2a/	(4b\	>
.	4cc#\)	.
2f#/	(8aa\L	mf
.	8cc#\	.
.	8dd\	.
.	8a\J)	.
=72	=72	=72
2f#/ 2g/	(4a\	>
.	4b\)	.
2e/	(8gg\L	mf
.	8b\	.
.	8cc#\	.
.	8b\J	.
=73	=73	=73
8e/L	4a#'\)	.
8f#/	.	.
8d/	(4b\	p
8e/J	.	.
8c#/L	4cc#\	<
8d/	.	.
8B/	4dd\	.
8c#/J	.	.
*clefF4	*	*
=74	=74	=74
2A#\	8ee\L	.
.	8dd\	.
.	8ee\	.
.	8cc#\J	.
2B\	8dd\L	.
.	8cc#\	.
.	8dd\	.
.	8b\J	.
=75	=75	=75
2F#\	2cc#\)	mf
(8F#\L	2f#\ 2ff#\	<
8A#\	.	.
8G#\	.	.
8B\J	.	.
=76	=76	=76
8A#\L	2f#\ 2ff#\	.
8c#\	.	.
8B\	.	.
8d\J	.	.
4c#'\)	4ee\	.
(4A#\	8dd\L	.
.	8cc#\J	.
=77	=77	=77
.	eeq/	.
4B\	4dd\	f
4F#\)	4cc#\	.
(8F#\L	2f#\ 2ff#\	p
8A#\	.	.
8G#\	.	.
8B\J	.	.
=78	=78	=78
8A#\L	2f#\ 2ff#\	.
8c#\	.	.
8B\	.	.
8d\J	.	.
4c#\)	4ee\	.
(4F#\	8dd\L	.
.	8cc#\J	.
=79	=79	=79
2B\)	4dd\	f
.	8cc#\L	.
.	8b\J	.
*clefG2	*	*
2g/	8dd\L	p
.	8cc#\	.
.	8dd\	.
.	8b\J	.
=80	=80	=80
*^	*	*
2a/	4g\	4cc#\	>
.	4f#\	4dd\	.
2g/	2r	(8dd\L	.
.	.	8cc#\	.
.	.	8dd\	.
.	.	8b\J	.
=81	=81	=81	=81
(2a/	4g\	4cc#\	>
.	4f#\)	4dd\)	.
(2g#/	2r	(8dd\L	mf
.	.	8cc#\	.
.	.	8dd\	.
.	.	8b\J)	.
*v	*v	*	*
=82	=82	=82
2a/)	4b\	>
.	4cc#\	.
(2g#/	8dd\L	.
.	8cc#\	.
.	8dd\	.
.	8b\J	.
=83	=83	=83
2a/)	4b\	>
.	4cc#\	.
*clefF4	*	*
(8AA/L	2a\ 2aa\	p
8C#/	.	.
8BB/	.	.
8D/J	.	.
=84	=84	=84
8C#\L	2a\ 2aa\	.
8E\	.	.
8D\	.	.
8F#\J	.	.
8E\L	2a\ 2aa\	.
8Gn\	.	.
8F#\	.	.
8A\J	.	.
=85	=85	=85
*	*^	*
2G\)	4aa/	2b\	mf
*	*v	*v	*
*	*^	*
.	4gg/	.	.
(8GG/L	2r	2b\ 2gg\	p
8BB/	.	.	.
8AA/	.	.	.
8C#/J	.	.	.
*	*v	*v	*
=86	=86	=86
8BB/L	2b\ 2gg\	.
8D/	.	.
8C#/	.	.
8E/J	.	.
8D\L	2b\ 2gg\	.
8F#\	.	.
8E\	.	.
8G\J	.	.
=87	=87	=87
*	*^	*
2F#\)	4gg/	2a\	mf
.	8ff#/L	.	.
.	8ee/J	.	.
(2F#\	2r	8dd\L	.
.	.	8cc#\	.
.	.	8b\	.
.	.	8a\J	.
*	*v	*v	*
=88	=88	=88
2G\)	8b\L	.
.	8dd\	.
.	8cc#\	.
.	8ee\J	.
2G\	8dd\L	.
.	8ff#\	.
.	8gg\	.
.	8ee\J	.
=89	=89	=89
2A\	2dd\	.
2AA/	(2ee\	f
=90	=90	=90
2D\	2dd\)	.
(8D\L	2ff#\ 2ddd\	p
8F#\	.	.
8E\	.	.
8G\J	.	.
=91	=91	=91
8F#\L	2ff#\ 2ddd\	.
8A\	.	.
8G\	.	.
8B\J	.	.
8A\L	2ff#\ 2ddd\	.
8c#\	.	.
8B\	.	.
8d\J	.	.
=92	=92	=92
*	*^	*
2c#\)	4ddd/	2ee\	f
*	*v	*v	*
*	*^	*
.	4ccc#/	.	.
(8C#\L	2r	2ee\ 2ccc#\	p
8E\	.	.	.
8D\	.	.	.
8F#\J	.	.	.
*	*v	*v	*
=93	=93	=93
8E\L	2ee\ 2ccc#\	.
8G\	.	.
8F#\	.	.
8A\J	.	.
8G\L	2ee\ 2ccc#\	.
8B\	.	.
8A\	.	.
8c#\J	.	.
=94	=94	=94
*	*^	*
2B\)	4ccc#/	2dd\	f
*	*v	*v	*
*	*^	*
.	4bb/	.	.
(8BB/L	2r	2dd\ 2bb\	p
8D/	.	.	.
8C#/	.	.	.
8E/J	.	.	.
*	*v	*v	*
=95	=95	=95
8D\L	2dd\ 2bb\	.
8F#\	.	.
8E\	.	.
8G\J	.	.
8F#\L	2dd\ 2bb\	.
8A\	.	.
8G\	.	.
8B\J	.	.
=96	=96	=96
*	*^	*
2A\)	4bb/	2cc#\	f
*	*v	*v	*
*	*^	*
.	4aa/	.	.
(8AA/L	2r	2a\ 2aa\	p
8C#/	.	.	.
8BB/	.	.	.
8D/J	.	.	.
*	*v	*v	*
=97	=97	=97
8C#\L	2a\ 2aa\	.
8E\	.	.
8D\	.	.
8F#\J	.	.
8E\L	2a\ 2aa\	.
8G\	.	.
8F#\	.	.
8A\J	.	.
=98	=98	=98
8G\L	2a\ 2aa\	.
8B\	.	.
8A\	.	.
8c#\J	.	.
8B\L	2a\ 2aa\	.
8d\	.	.
8c#\	.	.
8e\J	.	.
=99	=99	=99
*	*^	*
2d\)	4aa/	2a\	f
.	4ff#/	.	.
(4f#\	2r	4aa\	.
8e\L	.	8gg\L	.
8d\J	.	8ff#\J	.
*	*v	*v	*
=100	=100	=100
2A\)	2ee\	.
(8AA/L	2a\ 2aa\	p
8C#/	.	.
8BB/	.	.
8D/J	.	.
=101	=101	=101
8C#\L	2a\ 2aa\	.
8E\	.	.
8D\	.	.
8F#\J	.	.
8E\L	2a\ 2aa\	.
8G\	.	.
8F#\	.	.
8A\J	.	.
=102	=102	=102
8G\L	2a\ 2aa\	.
8B\	.	.
8A\	.	.
8c#\J	.	.
8B\L	2a\ 2aa\	.
8d\	.	.
8c#\	.	.
8e\J	.	.
=103	=103	=103
*	*^	*
2d\)	4aa/	2a\	f
.	4ff#/	.	.
(4f#\	2r	4aa\	.
8e\L	.	8gg\L	.
8d\J	.	8ff#\J	.
*	*v	*v	*
=104	=104	=104
2A\)	2ee\	.
(2A\	8cc#\L	p
.	8dd\	.
.	8ee\	.
.	8a\J	.
=105	=105	=105
2A\ 2B\)	4a\	.
.	4b\	.
2G\ (2B\	8b\L	.
.	8cc#\	.
.	8dd\	.
.	8g\J	.
=106	=106	=106
2G\ 2A\)	4g/	.
.	4a/	.
2F#\ (2A\	8ff#\L	mf
.	8gg\	.
.	8aa\	.
.	8dd\J	.
=107	=107	=107
2G\ 2B\)	4dd\	.
.	4ee\	.
2E\ (2G\	8ee\L	.
.	8ff#\	.
.	8gg\	.
.	8cc#\J	.
=108	=108	=108
2F#\ 2A\)	4cc#\	.
.	4dd\	.
2F#\ (2A\	8ff#\L	p
.	8gg\	<
.	8aa\	.
.	8dd\J	.
=109	=109	=109
2G\ 2B\)	8gg\L	.
.	8aa\	.
.	8bb\	.
.	8dd\J	.
2E\ (2G\	8aa\L	.
.	8bb\	.
.	8ccc#\	.
.	8ee\J	.
=110	=110	=110
2F#\ 2A\)	8ddd\L	f
.	8aa\	.
.	8ff#\	.
.	8dd\J	.
2F#\ (2A\	8ddd\L	.
.	8ccc#\	.
.	8bb\	.
.	8aa\J	.
=111	=111	=111
2G\ 2B\)	8aa\L	.
.	8gg\	.
.	8aa\	.
.	8bb\J	.
(2C#\ 2A\	8aa\L	.
.	8gg\	.
.	8ff#\	.
.	8ee\J	.
=112	=112	=112
2D\) 2A\	8ff#\L	.
.	8dd\	p
.	8ff#\	.
.	8aa\J	.
2F#\ (2A\	8ddd\L	.
.	8ccc#\	.
.	8bb\	.
.	8aa\J	.
=113	=113	=113
2G\ 2B\)	8aa\L	.
.	8gg\	.
.	8aa\	.
.	8bb\J	.
(2C#\ 2A\	8aa\L	.
.	8gg\	.
.	8ff#\	.
.	8ee\J	.
=114	=114	=114
2D\) 2A\	8ff#\L	<
.	8ee\	.
.	8dd\	.
.	8cc#\J	.
(2D\	8dd\L	.
.	8cc#\	.
.	8b\	.
.	8a\J	.
=115	=115	=115
2C#/	8a/L	.
.	8g/	.
.	8a/	.
.	8b/J	.
2AA/	8a/L	.
.	8g/	.
.	8f#/	.
.	8e/J	.
=116	=116	=116
2D\)	8f#/L	f
.	8d/	p
.	8f#/	<
.	8a/J	.
(2D\	8dd\L	.
.	8cc#\	.
.	8b\	.
.	8a\J	.
=117	=117	=117
2C#/	8a/L	.
.	8g/	.
.	8a/	.
.	8b/J	.
2AA/	8a/L	.
.	8g/	.
.	8f#/	.
.	8e/J	.
=118	=118	=118
2D\)	8f#/L	.
.	8e/	.
.	8d/	.
.	8c#/J	.
2FF#/ 2F#/	8d/L	.
.	8c#/	.
.	8B/	.
.	8A/J	.
=119	=119	=119
2GG/ 2G/	(8b\L	f
.	8cc#\	.
.	8dd\	.
.	8ee\J	.
2AA\ 2A\	8f#/L	.
.	8dd/	.
.	8e/	.
.	8cc#/J	.
=120	=120	=120
2DD/ 2D/	2dd\)	.
==:|!	==:|!	==:|!
*-	*-	*-
!!!ENC: Craig Stuart Sapp
!!!END: 2004/11/07/
